icons/svg/icons8/bus.svg

<?xml version="1.0" encoding="utf-8"?>
<!-- Generator: Adobe Illustrator 15.0.0, SVG Export Plug-In . SVG Version: 6.00 Build 0)  -->
<!DOCTYPE svg PUBLIC "-//W3C//DTD SVG 1.1//EN" "http://www.w3.org/Graphics/SVG/1.1/DTD/svg11.dtd">
<svg version="1.1" id="Layer_1" xmlns="http://www.w3.org/2000/svg" xmlns:xlink="http://www.w3.org/1999/xlink" x="0px" y="0px"
	 width="26px" height="26px" viewBox="0 0 26 26" enable-background="new 0 0 26 26" xml:space="preserve">
<rect x="902" y="1469" fill="#333333" width="26" height="2"/>
<rect x="902" y="1489" fill="#333333" width="26" height="2"/>
<rect x="906" y="1474" fill="#333333" width="18" height="2"/>
<rect x="902" y="1479" fill="#333333" width="26" height="2"/>
<rect x="906" y="1484" fill="#333333" width="18" height="2"/>
<rect x="902" y="1467" fill="none" width="26" height="26"/>
<rect fill="none" width="26" height="26"/>
<path fill="#333333" d="M8,23v2c0,0.552-0.448,1-1,1H5c-0.552,0-1-0.448-1-1v-2H8z"/>
<path fill="#333333" d="M22,23v2c0,0.552-0.448,1-1,1h-2c-0.552,0-1-0.448-1-1v-2H22z"/>
<path fill="#333333" d="M22,8c-0.385-2.552-1.807-3.852-4-4.478V3c0-0.551-0.449-1-1-1H9C8.449,2,8,2.449,8,3v0.496
	C5.813,4.102,4.395,5.387,4,8c-0.157,1.039-1,6.036-1,8c0,2.886,0,6,0,6c0,1.656,1.344,2,3,2h14c1.656,0,3-0.344,3-2
	c0,0,0-2.636,0-6C23,14.002,22.104,8.693,22,8z M10,3h6c0.552,0,0.552,1,0,1h-6C9.448,4,9.448,3,10,3z M7.5,21.266
	c-0.976,0-1.766-0.79-1.766-1.766s0.79-1.766,1.766-1.766c0.975,0,1.766,0.79,1.766,1.766S8.475,21.266,7.5,21.266z M18.5,21.266
	c-0.976,0-1.766-0.79-1.766-1.766s0.79-1.766,1.766-1.766c0.975,0,1.766,0.79,1.766,1.766S19.475,21.266,18.5,21.266z M19.59,14
	H6.41c-0.53,0-1-0.453-1-0.969s0.069-1.582,0.567-3.733C6.733,6.034,6.553,5.938,13,5.938s6.267,0.097,7.022,3.36
	c0.498,2.151,0.567,3.218,0.567,3.733S20.12,14,19.59,14z"/>
</svg>

<svg width="26" height="26" viewBox="0 0 26 26" fill="none" xmlns="http://www.w3.org/2000/svg">
<g clip-path="url(#clip0)">
<path d="M8 23V25C8 25.552 7.552 26 7 26H5C4.448 26 4 25.552 4 25V23H8Z" fill="#333333"/>
<path d="M22 23V25C22 25.552 21.552 26 21 26H19C18.448 26 18 25.552 18 25V23H22Z" fill="#333333"/>
<path d="M22 8C21.615 5.448 20.193 4.148 18 3.522V3C18 2.449 17.551 2 17 2H9C8.449 2 8 2.449 8 3V3.496C5.813 4.102 4.395 5.387 4 8C3.843 9.039 3 14.036 3 16C3 18.886 3 22 3 22C3 23.656 4.344 24 6 24H20C21.656 24 23 23.656 23 22C23 22 23 19.364 23 16C23 14.002 22.104 8.693 22 8ZM10 3H16C16.552 3 16.552 4 16 4H10C9.448 4 9.448 3 10 3ZM7.5 21.266C6.524 21.266 5.734 20.476 5.734 19.5C5.734 18.524 6.524 17.734 7.5 17.734C8.475 17.734 9.266 18.524 9.266 19.5C9.266 20.476 8.475 21.266 7.5 21.266ZM18.5 21.266C17.524 21.266 16.734 20.476 16.734 19.5C16.734 18.524 17.524 17.734 18.5 17.734C19.475 17.734 20.266 18.524 20.266 19.5C20.266 20.476 19.475 21.266 18.5 21.266ZM19.59 14H6.41C5.88 14 5.41 13.547 5.41 13.031C5.41 12.515 5.479 11.449 5.977 9.298C6.733 6.034 6.553 5.938 13 5.938C19.447 5.938 19.267 6.035 20.022 9.298C20.52 11.449 20.589 12.516 20.589 13.031C20.589 13.546 20.12 14 19.59 14Z" fill="#333333"/>
</g>
<defs>
<clipPath id="clip0">
<rect width="26" height="26" fill="white"/>
</clipPath>
</defs>
</svg>
